public/logos/QL.svg

<?xml version="1.0" encoding="UTF-8"?>
<svg xmlns="http://www.w3.org/2000/svg" xmlns:xlink="http://www.w3.org/1999/xlink" width="176pt" height="18.01pt" viewBox="0 0 176 18.01" version="1.1">
<defs>
<clipPath id="clip1">
  <path d="M 0 3 L 70 3 L 70 18.011719 L 0 18.011719 Z M 0 3 "/>
</clipPath>
</defs>
<g id="surface1">
<g clip-path="url(#clip1)" clip-rule="nonzero">
<path style=" stroke:none;fill-rule:nonzero;fill:rgb(19.078064%,70.309448%,25.387573%);fill-opacity:1;" d="M 42.171875 3.242188 C 42.039062 3.242188 41.96875 3.25 41.96875 3.25 L 40.417969 3.25 C 40.132812 3.238281 39.972656 3.246094 39.972656 3.246094 L 37.605469 3.25 L 23.910156 3.25 L 24.242188 3.328125 L 24.769531 3.441406 L 25.226562 3.527344 L 25.820312 3.636719 C 28.585938 4.128906 30.84375 4.707031 30.84375 4.707031 C 35.609375 6.101562 38.632812 8.992188 39.613281 10.105469 C 40.59375 11.214844 42.617188 13.371094 42.617188 13.371094 C 46.925781 18.332031 51.496094 18.003906 51.496094 18.003906 L 53.050781 18.003906 C 53.335938 18.015625 53.496094 18.007812 53.496094 18.007812 L 55.855469 18.003906 L 68.746094 17.992188 L 69.550781 17.992188 L 69.25 17.921875 L 68.699219 17.8125 L 68.242188 17.726562 L 67.644531 17.617188 C 64.878906 17.125 62.625 16.546875 62.625 16.546875 C 57.855469 15.152344 54.832031 12.261719 53.855469 11.152344 C 52.875 10.039062 50.847656 7.886719 50.847656 7.886719 C 47.078125 3.542969 43.105469 3.25 42.171875 3.246094 Z M 18.261719 3.242188 C 18.128906 3.242188 18.058594 3.25 18.058594 3.25 L 16.507812 3.25 C 16.222656 3.238281 16.0625 3.246094 16.0625 3.246094 L 13.695312 3.25 L 0 3.25 L 0.332031 3.328125 L 0.859375 3.441406 L 1.316406 3.527344 L 1.910156 3.636719 C 4.675781 4.128906 6.933594 4.707031 6.933594 4.707031 C 11.703125 6.101562 14.722656 8.992188 15.703125 10.105469 C 16.683594 11.214844 18.707031 13.371094 18.707031 13.371094 C 23.015625 18.332031 27.589844 18.003906 27.589844 18.003906 L 29.140625 18.003906 C 29.425781 18.015625 29.585938 18.007812 29.585938 18.007812 L 31.945312 18.003906 L 44.835938 17.992188 L 45.644531 17.992188 L 45.339844 17.921875 L 44.785156 17.8125 L 44.332031 17.726562 L 43.734375 17.617188 C 40.96875 17.125 38.714844 16.546875 38.714844 16.546875 C 33.945312 15.152344 30.921875 12.261719 29.945312 11.152344 C 28.964844 10.039062 26.941406 7.886719 26.941406 7.886719 C 23.167969 3.542969 19.195312 3.25 18.261719 3.246094 L 18.261719 3.242188 "/>
</g>
<path style=" stroke:none;fill-rule:nonzero;fill:rgb(97.099304%,85.858154%,2.076721%);fill-opacity:1;" d="M 54.828125 15.21875 L 55.503906 15.21875 L 55.191406 15.152344 L 54.621094 15.035156 L 54.152344 14.945312 L 53.535156 14.832031 C 50.683594 14.324219 48.355469 13.726562 48.355469 13.726562 C 43.433594 12.289062 40.316406 9.308594 39.304688 8.164062 C 38.296875 7.015625 36.207031 4.792969 36.207031 4.792969 C 31.761719 -0.328125 27.042969 0.0078125 27.042969 0.0078125 L 25.445312 0.0078125 C 25.152344 0 24.984375 0.0078125 24.984375 0.0078125 L 9.023438 0.0078125 L 8.867188 0.0117188 L 8.414062 0.0117188 L 8.757812 0.09375 L 9.300781 0.207031 L 9.769531 0.296875 L 10.386719 0.410156 C 13.238281 0.917969 15.570312 1.515625 15.570312 1.515625 C 20.484375 2.953125 23.601562 5.9375 24.613281 7.082031 C 25.625 8.226562 27.714844 10.449219 27.714844 10.449219 C 32.160156 15.570312 36.878906 15.234375 36.878906 15.234375 L 38.476562 15.234375 C 38.773438 15.242188 38.9375 15.234375 38.9375 15.234375 L 41.371094 15.234375 L 54.671875 15.21875 L 54.828125 15.21875 "/>
<path style=" stroke:none;fill-rule:nonzero;fill:rgb(36.462402%,36.499023%,40.177917%);fill-opacity:1;" d="M 165.457031 7.484375 C 167.199219 7.484375 167.621094 9.015625 167.605469 10.003906 L 163.078125 10.003906 C 163.203125 8.929688 163.890625 7.484375 165.457031 7.484375 Z M 148.3125 6.570312 L 148.3125 15.089844 L 149.859375 15.089844 L 149.859375 6.570312 Z M 134.210938 6.570312 L 134.210938 15.089844 L 135.761719 15.089844 L 135.761719 6.570312 Z M 173.605469 6.378906 C 171.777344 6.378906 170.667969 7.503906 170.667969 8.878906 C 170.667969 9.898438 171.390625 10.742188 172.921875 11.289062 C 174.0625 11.710938 174.503906 12.117188 174.503906 12.851562 C 174.503906 13.558594 173.976562 14.121094 172.847656 14.121094 C 172.074219 14.121094 171.265625 13.804688 170.808594 13.503906 L 170.421875 14.6875 C 171.019531 15.039062 171.882812 15.265625 172.8125 15.265625 C 174.839844 15.265625 176 14.210938 176 12.714844 C 176 11.445312 175.242188 10.707031 173.765625 10.144531 C 172.65625 9.722656 172.144531 9.402344 172.144531 8.699219 C 172.144531 8.066406 172.65625 7.539062 173.570312 7.539062 C 174.363281 7.539062 174.980469 7.820312 175.3125 8.03125 L 175.699219 6.90625 C 175.226562 6.625 174.46875 6.378906 173.605469 6.378906 Z M 165.578125 6.375 C 163.097656 6.375 161.585938 8.402344 161.585938 10.96875 C 161.585938 13.539062 163.148438 15.265625 165.773438 15.265625 C 167.128906 15.265625 168.0625 14.984375 168.605469 14.738281 L 168.34375 13.628906 C 167.761719 13.875 167.09375 14.070312 165.984375 14.070312 C 164.4375 14.070312 163.097656 13.207031 163.0625 11.113281 L 169.046875 11.113281 C 169.0625 10.953125 169.097656 10.707031 169.097656 10.390625 C 169.097656 8.824219 168.359375 6.375 165.578125 6.375 Z M 156.671875 6.375 C 155.265625 6.375 154.277344 7.167969 153.855469 7.980469 L 153.820312 7.980469 L 153.730469 6.570312 L 152.359375 6.570312 C 152.414062 7.277344 152.429688 7.996094 152.429688 8.875 L 152.429688 15.089844 L 153.980469 15.089844 L 153.980469 9.96875 C 153.980469 9.703125 154.015625 9.441406 154.085938 9.246094 C 154.347656 8.382812 155.140625 7.664062 156.160156 7.664062 C 157.621094 7.664062 158.132812 8.804688 158.132812 10.179688 L 158.132812 15.089844 L 159.683594 15.089844 L 159.683594 10.003906 C 159.683594 7.082031 157.851562 6.375 156.671875 6.375 Z M 142.097656 6.375 C 141.058594 6.375 140.128906 7.101562 139.738281 8.242188 L 139.667969 8.242188 L 139.617188 6.570312 L 138.261719 6.570312 C 138.3125 7.363281 138.332031 8.226562 138.332031 9.230469 L 138.332031 15.089844 L 139.863281 15.089844 L 139.863281 10.546875 C 139.863281 10.285156 139.894531 10.039062 139.933594 9.828125 C 140.144531 8.664062 140.917969 7.839844 142.011719 7.839844 C 142.222656 7.839844 142.378906 7.855469 142.539062 7.890625 L 142.539062 6.429688 C 142.394531 6.394531 142.273438 6.378906 142.097656 6.378906 Z M 83.144531 5.230469 L 83.179688 5.230469 C 83.355469 5.9375 83.566406 6.816406 83.78125 7.523438 L 84.519531 10.039062 L 81.894531 10.039062 L 82.601562 7.523438 C 82.792969 6.835938 82.96875 5.9375 83.144531 5.230469 Z M 113.070312 5.128906 C 114.304688 5.144531 115.039062 5.691406 115.039062 6.78125 C 115.039062 7.820312 114.25 8.488281 112.914062 8.488281 L 111.855469 8.488281 L 111.855469 5.214844 C 112.050781 5.179688 112.417969 5.128906 113.070312 5.128906 Z M 127.539062 4.582031 L 127.574219 4.582031 C 127.75 5.269531 127.925781 5.972656 128.191406 6.746094 L 129.257812 9.917969 L 125.835938 9.917969 L 126.941406 6.730469 C 127.171875 6.007812 127.363281 5.285156 127.539062 4.582031 Z M 126.675781 3.226562 L 122.644531 15.089844 L 124.230469 15.089844 L 125.519531 11.117188 L 129.632812 11.117188 L 130.9375 15.089844 L 132.570312 15.089844 L 128.523438 3.226562 Z M 99.796875 3.226562 L 99.796875 15.089844 L 107.363281 15.089844 L 107.363281 12.890625 L 102.492188 12.890625 L 102.492188 10.074219 L 106.855469 10.074219 L 106.855469 7.890625 L 102.492188 7.890625 L 102.492188 5.425781 L 107.121094 5.425781 L 107.121094 3.226562 Z M 81.507812 3.226562 L 77.882812 15.089844 L 80.664062 15.089844 L 81.507812 12.042969 L 84.90625 12.042969 L 85.820312 15.089844 L 88.707031 15.089844 L 85.027344 3.226562 Z M 69.644531 3.226562 L 69.644531 15.089844 L 77.054688 15.089844 L 77.054688 12.835938 L 72.335938 12.835938 L 72.335938 3.226562 Z M 149.085938 3.210938 C 148.523438 3.210938 148.117188 3.632812 148.117188 4.175781 C 148.117188 4.703125 148.507812 5.128906 149.050781 5.128906 C 149.664062 5.128906 150.054688 4.703125 150.035156 4.175781 C 150.035156 3.632812 149.667969 3.210938 149.085938 3.210938 Z M 134.988281 3.210938 C 134.425781 3.210938 134.019531 3.632812 134.019531 4.175781 C 134.019531 4.703125 134.40625 5.128906 134.949219 5.128906 C 135.566406 5.128906 135.953125 4.703125 135.9375 4.175781 C 135.9375 3.632812 135.566406 3.210938 134.988281 3.210938 Z M 112.769531 3.136719 C 111.347656 3.136719 110.0625 3.242188 109.199219 3.386719 L 109.199219 15.089844 L 111.855469 15.089844 L 111.855469 10.425781 L 112.664062 10.425781 C 113.757812 10.445312 114.269531 10.847656 114.585938 12.324219 C 114.9375 13.789062 115.21875 14.753906 115.410156 15.089844 L 118.15625 15.089844 C 117.929688 14.632812 117.558594 13.082031 117.1875 11.746094 C 116.890625 10.652344 116.433594 9.863281 115.605469 9.527344 L 115.605469 9.472656 C 116.625 9.105469 117.699219 8.066406 117.699219 6.550781 C 117.699219 5.460938 117.3125 4.632812 116.609375 4.070312 C 115.765625 3.402344 114.53125 3.136719 112.769531 3.136719 Z M 94.480469 3.035156 C 91.683594 3.035156 89.992188 4.582031 89.992188 6.605469 C 89.992188 8.332031 91.277344 9.421875 93.25 10.109375 C 94.675781 10.617188 95.238281 11.042969 95.238281 11.78125 C 95.238281 12.554688 94.585938 13.066406 93.355469 13.066406 C 92.210938 13.066406 91.101562 12.695312 90.382812 12.324219 L 89.835938 14.542969 C 90.503906 14.914062 91.84375 15.265625 93.199219 15.265625 C 96.453125 15.265625 97.984375 13.578125 97.984375 11.585938 C 97.984375 9.914062 96.996094 8.824219 94.902344 8.050781 C 93.371094 7.46875 92.703125 7.132812 92.703125 6.378906 C 92.703125 5.761719 93.265625 5.234375 94.429688 5.234375 C 95.589844 5.234375 96.433594 5.566406 96.910156 5.796875 L 97.507812 3.632812 C 96.804688 3.316406 95.820312 3.035156 94.480469 3.035156 Z M 144.15625 2.59375 L 144.15625 15.089844 L 145.707031 15.089844 L 145.707031 2.59375 L 144.15625 2.59375 "/>
</g>
</svg>

<svg xmlns="http://www.w3.org/2000/svg" width="176pt" height="24.013" viewBox="0 0 176 18.01"><defs><clipPath id="a"><path d="M0 3h70v15.012H0Zm0 0"/></clipPath></defs><g clip-path="url(#a)"><path d="M42.172 3.242c-.133 0-.203.008-.203.008h-1.551c-.285-.012-.445-.004-.445-.004l-2.368.004H23.91l.332.078.528.113.457.086.593.11a77 77 0 0 1 5.024 1.07c4.765 1.395 7.789 4.285 8.77 5.398.98 1.11 3.003 3.266 3.003 3.266 4.309 4.961 8.88 4.633 8.88 4.633h1.554c.285.012.445.004.445.004l2.36-.004 12.89-.012h.805l-.301-.07-.55-.11-.458-.085-.597-.11c-2.766-.492-5.02-1.07-5.02-1.07-4.77-1.395-7.793-4.285-8.77-5.395-.98-1.113-3.007-3.265-3.007-3.265-3.77-4.344-7.743-4.637-8.676-4.64Zm-23.91 0c-.133 0-.203.008-.203.008h-1.551c-.285-.012-.445-.004-.445-.004l-2.368.004H0l.332.078.527.113.457.086.594.11c2.766.492 5.024 1.07 5.024 1.07 4.77 1.395 7.789 4.285 8.77 5.398.98 1.11 3.003 3.266 3.003 3.266 4.309 4.961 8.883 4.633 8.883 4.633h1.55c.286.012.446.004.446.004l2.36-.004 12.89-.012h.809l-.305-.07-.555-.11-.453-.085-.598-.11c-2.765-.492-5.02-1.07-5.02-1.07-4.769-1.395-7.792-4.285-8.769-5.395-.98-1.113-3.004-3.265-3.004-3.265-3.773-4.344-7.746-4.637-8.68-4.64z" style="stroke:none;fill-rule:nonzero;fill:#31b341;fill-opacity:1"/></g><path d="M54.828 15.219h.676l-.313-.067-.57-.117-.469-.09-.617-.113c-2.851-.508-5.18-1.105-5.18-1.105-4.921-1.438-8.039-4.418-9.05-5.563-1.008-1.148-3.098-3.371-3.098-3.371C31.762-.328 27.043.008 27.043.008h-1.598c-.293-.008-.46 0-.46 0H9.022l-.156.004h-.453l.344.082.543.113.469.09.617.113a80 80 0 0 1 5.183 1.106c4.914 1.437 8.032 4.422 9.043 5.566 1.012 1.145 3.102 3.367 3.102 3.367 4.445 5.121 9.164 4.785 9.164 4.785h1.598c.296.008.46 0 .46 0h2.434l13.3-.015z" style="stroke:none;fill-rule:nonzero;fill:#f8db05;fill-opacity:1"/><path d="M165.457 7.484c1.742 0 2.164 1.532 2.148 2.52h-4.527c.125-1.074.813-2.52 2.379-2.52m-17.144-.914v8.52h1.546V6.57Zm-14.102 0v8.52h1.55V6.57Zm39.394-.191c-1.828 0-2.937 1.125-2.937 2.5 0 1.02.723 1.863 2.254 2.41 1.14.422 1.582.828 1.582 1.563 0 .707-.527 1.27-1.656 1.27-.774 0-1.582-.317-2.04-.618l-.386 1.184c.598.351 1.46.578 2.39.578 2.028 0 3.188-1.055 3.188-2.551 0-1.27-.758-2.008-2.234-2.57-1.11-.422-1.621-.743-1.621-1.446 0-.633.511-1.16 1.425-1.16.793 0 1.41.281 1.743.492l.386-1.125c-.472-.281-1.23-.527-2.094-.527m-8.027-.004c-2.48 0-3.992 2.027-3.992 4.594 0 2.57 1.562 4.297 4.187 4.297 1.356 0 2.29-.282 2.832-.528l-.261-1.11c-.582.247-1.25.442-2.36.442-1.547 0-2.886-.863-2.922-2.957h5.985c.016-.16.05-.406.05-.722 0-1.567-.738-4.016-3.519-4.016m-8.906 0c-1.406 0-2.395.793-2.817 1.605h-.035l-.09-1.41h-1.37c.054.707.07 1.426.07 2.305v6.215h1.55V9.969c0-.266.036-.528.106-.723.262-.863 1.055-1.582 2.074-1.582 1.461 0 1.973 1.14 1.973 2.516v4.91h1.55v-5.086c0-2.922-1.831-3.629-3.011-3.629m-14.574 0c-1.04 0-1.97.727-2.36 1.867h-.07l-.05-1.672h-1.356c.05.793.07 1.657.07 2.66v5.86h1.531v-4.543c0-.262.032-.508.07-.719.212-1.164.985-1.988 2.079-1.988.21 0 .367.015.527.05V6.43a1.7 1.7 0 0 0-.441-.051ZM83.145 5.23h.035c.175.707.386 1.586.601 2.293l.739 2.516h-2.625l.707-2.516c.191-.687.367-1.585.543-2.293m29.925-.101c1.235.016 1.97.562 1.97 1.652 0 1.04-.79 1.707-2.126 1.707h-1.059V5.215c.196-.035.563-.086 1.215-.086m14.47-.547h.034c.176.688.352 1.39.617 2.164l1.067 3.172h-3.422l1.105-3.188c.23-.722.422-1.445.598-2.148m-.864-1.355-4.031 11.863h1.585l1.29-3.973h4.113l1.304 3.973h1.633l-4.047-11.863Zm-26.88 0V15.09h7.567v-2.2h-4.87v-2.816h4.362V7.891h-4.363V5.426h4.63v-2.2Zm-18.288 0L77.883 15.09h2.781l.844-3.047h3.398l.914 3.047h2.887l-3.68-11.863Zm-11.863 0V15.09h7.41v-2.254h-4.72v-9.61Zm79.44-.016a.944.944 0 0 0-.968.965c0 .527.39.953.934.953.613 0 1.004-.426.984-.953 0-.543-.367-.965-.95-.965m-14.097 0a.944.944 0 0 0-.968.965c0 .527.386.953.93.953.616 0 1.003-.426.988-.953 0-.543-.372-.965-.95-.965m-22.218-.074c-1.422 0-2.707.105-3.57.25V15.09h2.655v-4.664h.81c1.093.02 1.605.422 1.92 1.898.353 1.465.634 2.43.825 2.766h2.746c-.226-.457-.597-2.008-.969-3.344-.296-1.094-.753-1.883-1.582-2.219v-.054c1.02-.368 2.094-1.407 2.094-2.922 0-1.09-.386-1.918-1.09-2.48-.843-.669-2.078-.934-3.84-.934m-18.29-.102c-2.796 0-4.488 1.547-4.488 3.57 0 1.727 1.285 2.817 3.258 3.504 1.426.508 1.988.934 1.988 1.672 0 .774-.652 1.285-1.883 1.285-1.144 0-2.253-.37-2.972-.742l-.547 2.219c.668.371 2.008.723 3.363.723 3.254 0 4.785-1.688 4.785-3.68 0-1.672-.988-2.762-3.082-3.535-1.53-.582-2.199-.918-2.199-1.672 0-.617.563-1.145 1.727-1.145 1.16 0 2.004.332 2.48.563l.598-2.164c-.703-.317-1.688-.598-3.028-.598m49.676-.441V15.09h1.551V2.594z" style="stroke:none;fill-rule:nonzero;fill:#5d5d66;fill-opacity:1"/></svg>
